X:3126b
T:Polska efter Munter Johan
R:Polska
S:Johan Olofsson Munter (1844-1917)
N:abc-transkr. Lennart Sohlman
O:Mattmar, Jämtland
B:SvL nr 204
M:3/4
L:1/8
K:G
v.gz f/{gf}e/d e>f|g>a b(a/g/) a{g}f|g(a/g/) f(e/d/) e>f|.gzb4|!
gz f/{gf}e/d e>f|g>a b(a/g/) a{g}f|g(a/g/) e(d e)f|[1gz G,4:|[2gzG,3|:!
K:Dm
(u(3d/e/^f/)|ga =f2e{fe}(d|^c)d Ad =c{dc}B|A{BA}(G B)(A/G/) A<^F|GA Bc d(e/^f/)|!
ga =f2e{fe}(d|^c)d Ad =cB|A(G B)A/G/ (A/4G/4^F3/)[1G4 z:|[2G4z2|]
(:musicend:)
(:music:)
